assets/Herb/Flat/herb_flat.svg

<svg width="32" height="32" viewBox="0 0 32 32" fill="none" xmlns="http://www.w3.org/2000/svg">
<path d="M8.01807 29.5999L9.15807 29.9899L10.5081 26.0917L14.528 26.5101C14.858 26.5401 15.158 26.3001 15.188 25.9701C15.218 25.6401 14.978 25.3401 14.648 25.3101L10.9152 24.9207C11.8535 22.3395 13.6135 20.0824 15.8881 18.5399C15.9274 18.5133 15.9665 18.4865 16.0056 18.4595L20.148 18.9C20.478 18.93 20.778 18.69 20.808 18.36C20.838 18.03 20.598 17.73 20.268 17.7L17.3638 17.3905C19.1862 15.767 20.5916 13.6776 21.3881 11.3599L21.7681 10.2699C21.8781 9.94994 21.7181 9.60994 21.3981 9.49994C21.0781 9.38994 20.7381 9.54993 20.6281 9.86993L20.2481 10.9599C19.4636 13.228 18.0466 15.2562 16.2017 16.7841L14.498 13.2801C14.348 12.9801 13.988 12.8501 13.688 13.0001C13.388 13.1501 13.258 13.5101 13.408 13.8101L15.2145 17.5255C15.2124 17.527 15.2102 17.5285 15.2081 17.5299C12.8413 19.1327 10.978 21.4561 9.92589 24.1199L8.61802 21.43C8.46802 21.13 8.10802 21 7.80802 21.15C7.50802 21.3 7.37802 21.66 7.52802 21.96L9.35783 25.7234L8.01807 29.5999Z" fill="#44911B"/>
<path d="M23.9781 2C20.6381 3.63 19.2381 7.66 20.8681 11C24.2181 9.37 25.6081 5.34 23.9781 2Z" fill="#86D72F"/>
<path d="M15.788 9.05008L13.978 5.33008C11.878 6.35008 11.008 8.88007 12.028 10.9801L13.838 14.7001C15.938 13.6701 16.808 11.1501 15.788 9.05008Z" fill="#86D72F"/>
<path d="M10.3581 15.4399L8.03806 10.6799C5.35806 11.9899 4.23807 15.2199 5.54807 17.8999L7.86806 22.6599C10.5481 21.3499 11.6581 18.1199 10.3581 15.4399Z" fill="#86D72F"/>
<path d="M27.9181 15.4702L23.7981 15.0401C21.4781 14.7901 19.4081 16.4802 19.1581 18.8002L23.2781 19.2302C25.5981 19.4702 27.6781 17.7902 27.9181 15.4702Z" fill="#86D72F"/>
<path d="M19.3481 21.6L24.6181 22.15C24.3081 25.12 21.6481 27.27 18.6781 26.96L13.4081 26.41C13.7181 23.44 16.3781 21.29 19.3481 21.6Z" fill="#86D72F"/>
</svg>

<svg xmlns="http://www.w3.org/2000/svg" width="32" height="32" fill="none"><path fill="#44911B" d="m8.018 29.6 1.14.39 1.35-3.898 4.02.418c.33.03.63-.21.66-.54a.605.605 0 0 0-.54-.66l-3.733-.39a13.206 13.206 0 0 1 5.09-6.46l4.143.44c.33.03.63-.21.66-.54a.605.605 0 0 0-.54-.66l-2.904-.31a14.377 14.377 0 0 0 4.024-6.03l.38-1.09a.598.598 0 0 0-.37-.77.598.598 0 0 0-.77.37l-.38 1.09a13.206 13.206 0 0 1-4.046 5.824l-1.704-3.504a.605.605 0 1 0-1.09.53l1.806 3.716a14.39 14.39 0 0 0-5.289 6.594l-1.307-2.69a.605.605 0 1 0-1.09.53l1.83 3.763-1.34 3.877Z"/><path fill="#86D72F" d="M23.978 2c-3.34 1.63-4.74 5.66-3.11 9a6.727 6.727 0 0 0 3.11-9ZM15.788 9.05l-1.81-3.72a4.226 4.226 0 0 0-1.95 5.65l1.81 3.72a4.229 4.229 0 0 0 1.95-5.65ZM10.358 15.44l-2.32-4.76c-2.68 1.31-3.8 4.54-2.49 7.22l2.32 4.76a5.408 5.408 0 0 0 2.49-7.22ZM27.918 15.47l-4.12-.43c-2.32-.25-4.39 1.44-4.64 3.76l4.12.43c2.32.24 4.4-1.44 4.64-3.76ZM19.348 21.6l5.27.55a5.403 5.403 0 0 1-5.94 4.81l-5.27-.55a5.403 5.403 0 0 1 5.94-4.81Z"/></svg>
